chrome/urlbar/permissions/addon-install.svg

<svg xmlns="http://www.w3.org/2000/svg" width="16" height="16" viewBox="0 0 16 16">
   <path
   style="fill:context-fill;fill-opacity:context-fill-opacity"
   d="M 8.25 0 L 8.0957031 0.005859375 C 7.0267031 0.078139375 6.1637044 0.8970025 6.0214844 1.9453125 L 6.0136719 2.0019531 L 3.5019531 2.0019531 L 3.3574219 2.0078125 C 2.5968419 2.0805025 2.0019531 2.7222631 2.0019531 3.5019531 L 2.0019531 5.765625 L 1.9433594 5.7714844 C 0.84590937 5.9204744 1.4802974e-16 6.8628731 0 8.0019531 L 0.005859375 8.15625 C 0.078139375 9.22515 0.8970025 10.088169 1.9453125 10.230469 L 2.0019531 10.236328 L 2.0019531 12.501953 L 2.0078125 12.646484 C 2.0804925 13.406984 2.7222531 14.001953 3.5019531 14.001953 L 5.515625 14.001953 L 5.5214844 14.056641 C 5.6704744 15.153641 6.6129131 16 7.7519531 16 L 7.90625 15.994141 C 8.97525 15.921841 9.8382687 15.102987 9.9804688 14.054688 L 9.9863281 14.001953 L 12.501953 14.001953 C 13.330453 14.001953 14.001953 13.330353 14.001953 12.501953 L 14 9.2480469 L 12.25 9.25 L 12.126953 9.2441406 C 11.501753 9.1929406 11 8.6521 11 8 L 11.005859 7.8769531 C 11.057059 7.2518231 11.5979 6.75 12.25 6.75 L 14 6.7480469 L 14.001953 3.5019531 L 13.994141 3.3574219 C 13.921441 2.5966519 13.281653 2.0019531 12.501953 2.0019531 L 10.484375 2.0019531 L 10.480469 1.9453125 C 10.331469 0.8470825 9.3891 2.9605947e-16 8.25 0 z M 8.25 1 C 8.9404 1 9.5 1.55964 9.5 2.25 L 9.5 3 L 12.501953 3.0019531 L 12.591797 3.0097656 C 12.825097 3.0521056 13.001953 3.2564931 13.001953 3.5019531 L 13.001953 5.7480469 L 12.25 5.75 C 11.0764 5.75 10.102312 6.6528263 10.007812 7.8164062 L 10 7.9804688 C 9.9996 9.1746587 10.902806 10.147687 12.066406 10.242188 L 12.230469 10.25 L 13.001953 10.248047 L 13.001953 12.501953 C 13.001953 12.777953 12.778153 13.001953 12.501953 13.001953 L 9 13 L 9.0019531 13.751953 C 9.0018531 14.440853 8.4423531 15 7.7519531 15 C 7.0616531 15 6.5019531 14.4404 6.5019531 13.75 L 6.5 13 L 3.5019531 13.001953 C 3.2259131 13.001953 3.0019531 12.778053 3.0019531 12.501953 L 3 9.25 L 2.2480469 9.2519531 C 1.5586869 9.2519531 1 8.6923531 1 8.0019531 C 1 7.3116031 1.55964 6.7519531 2.25 6.7519531 L 3 6.75 L 3.0019531 3.5019531 C 3.0019531 3.2256731 3.2258131 3.0019531 3.5019531 3.0019531 L 7 3 L 7 2.25 C 7 1.55964 7.5596 1 8.25 1 z " />
</svg>

<svg xmlns="http://www.w3.org/2000/svg" width="16" height="16">
  <path style="fill:context-fill;fill-opacity:context-fill-opacity" d="m8.25 0-.154.006a2.25 2.25 0 0 0-2.075 1.94l-.007.056H3.502l-.145.006a1.501 1.501 0 0 0-1.355 1.494v2.264l-.059.005A2.251 2.251 0 0 0 0 8.002l.006.154a2.25 2.25 0 0 0 1.94 2.074l.056.006v2.266l.006.144c.072.761.714 1.356 1.494 1.356h2.014l.005.055A2.251 2.251 0 0 0 7.752 16l.154-.006a2.25 2.25 0 0 0 2.074-1.94l.006-.052h2.516a1.5 1.5 0 0 0 1.5-1.5L14 9.248l-1.75.002-.123-.006A1.246 1.246 0 0 1 11 8l.006-.123A1.246 1.246 0 0 1 12.25 6.75L14 6.748l.002-3.246-.008-.145a1.5 1.5 0 0 0-1.492-1.355h-2.018l-.004-.057A2.252 2.252 0 0 0 8.25 0zm0 1c.69 0 1.25.56 1.25 1.25V3l3.002.002.09.008a.5.5 0 0 1 .41.492v2.246l-.752.002a2.25 2.25 0 0 0-2.242 2.066L10 7.98c0 1.195.903 2.168 2.066 2.262l.164.008.772-.002v2.254a.5.5 0 0 1-.5.5L9 13l.002.752a1.25 1.25 0 0 1-2.5-.002L6.5 13l-2.998.002a.5.5 0 0 1-.5-.5L3 9.25l-.752.002a1.249 1.249 0 1 1 .002-2.5L3 6.75l.002-3.248a.5.5 0 0 1 .5-.5L7 3v-.75C7 1.56 7.56 1 8.25 1z"/>
</svg>
